src/images/clients/shein.svg

<svg width="144" height="32" viewBox="0 0 144 32" fill="none" xmlns="http://www.w3.org/2000/svg">
<path d="M121.576 0.733215C121.656 0.812528 121.737 0.892702 121.816 0.972014C127.143 5.90144 132.47 10.8317 137.799 15.762C137.799 11.0697 137.799 6.29887 137.799 1.60824C139.865 1.60824 141.933 1.60824 144 1.60824C144 11.5473 144 21.407 144 31.3469C138.593 26.3373 133.187 21.2475 127.7 16.2388C127.7 20.9311 127.7 25.6217 127.7 30.3132C125.631 30.3132 123.643 30.3132 121.576 30.3132C121.576 20.532 121.576 10.5929 121.576 0.733215Z" fill="black"/>
<path d="M2.1466 5.3454C3.81647 2.87982 6.75878 1.52893 9.62092 1.21082C13.9943 0.812531 18.7651 1.52893 22.1842 4.54969C20.7531 5.90145 19.2427 7.17389 17.8108 8.52565C16.2211 7.09458 14.0745 6.37904 11.927 6.37904C10.3365 6.29887 8.66659 6.85578 7.79243 8.20754C7.15621 9.16187 7.395 10.5929 8.26916 11.3085C9.70023 12.5016 11.5287 13.0577 13.2788 13.6939C15.8228 14.4896 18.3677 15.3637 20.435 17.1129C23.2971 19.4199 23.9333 24.1105 21.7074 27.0528C19.7988 29.5977 16.6978 30.9495 13.5969 31.1865C10.8132 31.2659 8.03036 31.1865 5.40616 30.2339C3.41905 29.5977 1.66987 28.4839 0 27.2899C1.43107 25.939 2.94145 24.5872 4.37338 23.2355C6.8381 25.1441 10.0183 26.1778 13.1201 25.7804C14.471 25.5424 15.903 24.826 16.3797 23.4743C16.6978 22.282 15.9823 21.0889 14.9486 20.532C11.7684 18.7026 8.03036 18.3069 4.92943 16.3181C3.25956 15.2844 1.82849 13.6939 1.27158 11.7861C0.636222 9.55929 0.874159 7.17389 2.1466 5.3454Z" fill="black"/>
<path d="M33.6344 1.68755C35.7017 1.68755 37.769 1.68755 39.8363 1.68755C39.8363 5.50402 39.8363 9.24118 39.8363 13.0576C44.0511 13.0576 48.1856 13.0576 52.3995 13.0576C52.3995 9.24118 52.3995 5.50402 52.3995 1.68755C54.4677 1.68755 56.6134 1.68755 58.6816 1.68755C58.6816 11.3085 58.6816 20.8501 58.6816 30.471C56.6134 30.471 54.4677 30.471 52.3995 30.471C52.3995 26.258 52.3995 21.963 52.3995 17.75C48.1856 17.75 44.0511 17.75 39.8363 17.75C39.8363 21.963 39.8363 26.258 39.8363 30.471C37.769 30.471 35.7017 30.471 33.6344 30.471C33.6344 20.9311 33.6344 11.3085 33.6344 1.68755Z" fill="black"/>
<path d="M70.8465 1.68755C77.9234 1.68755 84.921 1.68755 91.9979 1.68755C91.9979 3.19793 91.9979 4.78849 91.9979 6.29887C86.9883 6.29887 81.9787 6.29887 76.97 6.29887C76.97 8.60496 76.97 10.8317 76.97 13.1378C81.8985 13.1378 86.8297 13.1378 91.7591 13.1378C91.7591 14.6482 91.7591 16.1586 91.7591 17.6698C86.8297 17.6698 81.8985 17.6698 76.97 17.6698C76.97 20.294 76.97 22.9182 76.97 25.5424C81.9787 25.5424 86.9883 25.5424 91.9979 25.5424C91.9979 27.2114 91.9979 28.802 91.9979 30.471C84.921 30.471 77.9234 30.471 70.8465 30.471C70.8465 20.9311 70.8465 11.3085 70.8465 1.68755Z" fill="black"/>
<path d="M103.05 1.68755C105.117 1.68755 107.185 1.68755 109.253 1.68755C109.253 11.3085 109.253 20.8501 109.253 30.471C107.185 30.471 105.117 30.471 103.05 30.471C103.05 20.9311 103.05 11.3085 103.05 1.68755Z" fill="black"/>
</svg>

<svg xmlns="http://www.w3.org/2000/svg" width="144" height="32" fill="none" viewBox="0 0 144 32"><path fill="#000" d="m121.576.733.24.239 15.983 14.79V1.608H144v29.739c-5.407-5.01-10.813-10.1-16.3-15.108v14.074h-6.124V.733ZM2.147 5.345C3.817 2.88 6.759 1.53 9.62 1.211c4.373-.398 9.144.318 12.563 3.339-1.43 1.351-2.941 2.624-4.373 3.976-1.59-1.431-3.736-2.147-5.884-2.147-1.59-.08-3.26.477-4.135 1.829-.636.954-.397 2.385.477 3.1 1.431 1.194 3.26 1.75 5.01 2.386 2.544.796 5.089 1.67 7.156 3.419 2.862 2.307 3.498 6.997 1.272 9.94-1.908 2.545-5.01 3.896-8.11 4.133-2.784.08-5.567 0-8.19-.952C3.418 29.598 1.67 28.484 0 27.29c1.431-1.351 2.941-2.703 4.373-4.055 2.465 1.91 5.645 2.943 8.747 2.545 1.351-.238 2.783-.954 3.26-2.306.318-1.192-.398-2.385-1.431-2.942-3.18-1.83-6.919-2.225-10.02-4.214-1.67-1.034-3.1-2.624-3.657-4.532-.636-2.227-.398-4.612.875-6.44ZM33.634 1.688h6.202v11.37H52.4V1.688h6.282V30.47H52.4V17.75H39.836v12.721h-6.202V1.688ZM70.847 1.688h21.15v4.61H76.97v6.84h14.79v4.532H76.97v7.872h15.028v4.929H70.847V1.688ZM103.05 1.688h6.203V30.47h-6.203V1.688Z"/></svg>
